!!!COM: Anonymous
!!!CDT: [?]
!!!OTL@@POL: Kędyż mnie niewtargnione nadzieje wiedziecie
!!!TXO: Polish
!!!ODT: 
!!!GTL: Hymnbook E
!!!ARL: Opactwo św. Wojciecha, Staniątki 
!!!voices:	2
**kern	**kern	**text	**text
*staff2	*staff1	*staff1	*staff1
*I"Basso	*I"Canto I	*	*
=1-	=1-	=1-	=1-
*clefF4	*clefG2	*	*
*k[b-]	*k[b-]	*	*
*M3/2	*M3/2	*	*
2GG/	2d/	Kę-	Kę-
2BB-/	2g/	-dyż	-dyż
2D\	2f#/	mnie	kę-
=2	=2	=2	=2
4G\	4g/	nie-	-dy
4F#\	4a/	-wtar-	na
2.G\	2.b-\	-gnio-	lot-
4C#/	8a/L	-ne	-nych
.	8g/J	.	.
=3	=3	=3	=3
2D\	4a/	na-	Ze-
.	4b-\	-dzie-	-fi-
1C	2.cc\	-je	-rach
.	8g/L	wie-	nie-
.	8a/J	.	.
=4	=4	=4	=4
4D\	2f#/	-dzie-	-sie-
4E-\	.	.	.
4D\	1d	-cie	-cie
!!linebreak:original
4C/	.	.	.
4.BB-/	.	.	.
8AA/	.	.	.
=5:|!	=5:|!	=5:|!	=5:|!
!!linebreak:original
2C#/	2a/	Choć-	.
4D\	2f#/	-bym	.
4Cni/	.	.	.
4BB-/	2d/	siadł	.
4AA/	.	.	.
=6	=6	=6	=6
2GG/	4g/	i	.
.	4f/	na	.
2C/	2e-/	ło-	.
2F\	2c/	-nie	.
=7	=7	=7	=7
2D\	4f/	Jo-	.
.	4b-\	-wi-	.
2E-\	4g/	-sza	.
.	4f/	.	.
2BB-/	4e-/	sa-	.
.	4d/	.	.
=8	=8	=8	=8
2F\	2c/	-me-	.
1BB-	1B-	-go	.
=9	=9	=9	=9
!!linebreak:original
2BB-/	2d/	Wiem	.
2B-\	2.g/	że	.
4A\	.	.	.
4G\	8f#/L	się	.
.	8g/J	.	.
=10	=10	=10	=10
4F#\	4a/	nie	.
4E\	4b-\	u-	.
4D\	2.cc\	-chro-	.
4E\	.	.	.
4F#\	.	.	.
4D\	8b-/L	-nię	.
.	8a/J	.	.
=11	=11	=11	=11
4G\	4b-\	gro-	.
8F\L	8a/L	-tu	.
8E\J	8g/J	.	.
2D\	2f#/	śmier-	.
2C#/	4.g/	-tel-	.
.	16a/LL	.	.
.	16b-/JJ	.	.
=12	=12	=12	=12
2D\	4g/	-ne-	.
.	4f#/	.	.
1GG	1g	-go.	.
==	==	==	==
*-	*-	*-	*-
!!!GTL: Hymnbook E
!!!EFL: 111/117
!!!YEM: Creative Commons CC/BY/NC/SA 4.0
!!!ENC: Marcin Konik
!!!END: 
!!!EED: Marcin Konik
!!!EEV: 
!!!ONB: Translated from MusicXML and edited by Marcin Konik
!!!CharacterEncoding: utf-8
!!!RDF**kern: l=long note in original notation
!!!RDF**kern: i=editorial accidental
!!muse2ps: z14jc180F
